packages/heroicons/src/interstate/outline/home.svg

<svg width="16" height="17" viewBox="0 0 16 17" fill="none" xmlns="http://www.w3.org/2000/svg">
<g clip-path="url(#clip0_1243_5036)">
<path d="M0.800049 8.55731L7.41256 1.9448C7.73699 1.62037 8.263 1.62037 8.58744 1.9448L15.1999 8.55731M2.46158 6.89579V14.3727C2.46158 14.8315 2.83352 15.2034 3.29234 15.2034H6.33847V11.6034C6.33847 11.1446 6.71042 10.7727 7.16924 10.7727H8.83076C9.28958 10.7727 9.66153 11.1446 9.66153 11.6034V15.2034H12.7077C13.1665 15.2034 13.5384 14.8315 13.5384 14.3727V6.89579M5.23079 15.2034H11.3231" stroke="black" stroke-width="1.5" stroke-linecap="round" stroke-linejoin="round"/>
</g>
<defs>
<clipPath id="clip0_1243_5036">
<rect width="16" height="16" fill="white" transform="translate(0 0.547119)"/>
</clipPath>
</defs>
</svg>

<svg viewBox="0 0 16 17">
  <g clip-path="url(#a)">
    <path stroke="currentColor" stroke-linecap="round" stroke-linejoin="round" stroke-width="1.5" d="m.8 8.599 6.613-6.613a.83.83 0 0 1 1.174 0L15.2 8.6M2.462 6.937v7.477c0 .459.372.83.83.83h3.046v-3.6a.83.83 0 0 1 .831-.83h1.662a.83.83 0 0 1 .83.83v3.6h3.047a.83.83 0 0 0 .83-.83V6.937m-8.307 8.308h6.092"/>
  </g>
  <defs>
    <clipPath id="a">
      <path d="M0 0h16v16H0z" transform="translate(0 .589)"/>
    </clipPath>
  </defs>
</svg>
